X:1
T:Title
%%score { 1 | 2 }
L:1/8
Q:1/4=100
M:4/4
K:G
V:1 treble nm="Grand Piano"
V:2 treble 
V:1
 D2 G>A B2 G2 | c2 B2 [GB]2 [FA]2 | [FA]2 [GB]>[G^c] [Fd]2 [DFA]>[B,EG] | %3
w: Wm.~J.~Kirkpatrick * * * *|||
 [DF]2[K:bass] [G,^CE]2 [F,D]4 | [G,B,D]2 G>A B2 G2 | [FA]2 [FA]>[GB] [Ac]2 [FA]2 | %6
w: |||
 B2 B>c d2 [Gd]>[Ec] | [DB]2 [DA]2 [B,DG]4 | [FA]2 D>D D2 D2 | B2 G>G G2 G2 | c2 B>B A2 [Fd]2 | %11
w: |||||
 d2 [E^c]>[Gc] [Fd]4 | d2 B>c d2 B2 | [Fc]2 [FA]>[GB] [Fc]2 [FA]2 | B2 d>d [Gd]2 [EGc]2 | %15
w: ||||
 [DGB]4 [CFA]3 [CFA] | [G,B,DG]6 z2 |] %17
w: ||
V:2
 [G,B,]2 [G,B,D]>[G,CD] [G,DG]2 [G,B,D]2 | [F,A,D]2 [G,DG]2 [D,D]2 [D,D]2 | %2
 [D,D]2 [D,D]>[D,A,] [D,A,]2 F,>G, | A,2 A,,2 D,4 | %4
 G,,2[K:treble] [G,B,D]>[G,CD] [G,DG]2[K:bass] [G,B,D]2 | [D,D]2 [D,D]>[D,D] [D,D]2 [D,D]2 | %6
 [G,DG]2 [G,DG]>[G,DG] [G,B,G]2[K:bass] [B,,G,]>[C,G,] | [D,G,]2 [D,C]2 [G,,G,]4 | %8
 [D,C]2 [D,F,]>[D,F,] [D,F,]2 [D,F,]2 | [G,D]2 [G,B,D]>[G,B,D] [G,B,E]2 [G,B,D]2 | %10
 [A,DF]2 [G,DG]>[G,DG][K:bass] [F,D]2 [D,A,]2 | [A,F]2 [A,,A,]>[A,,A,] [D,A,]4 | %12
 [G,B,G]2 [G,D]>[G,A,D] [G,B,D]2 [G,D]2 | [D,A,]2 [D,D]>[D,D] [D,A,]2 [D,D]2 | %14
 [G,DG]2 [G,B,G]>[G,B,G][K:bass] [B,,G,]2 C,2 | D,4 D,3 D, | G,,6 z2 |] %17

